src/Pure/16/symbolic/actions/cinnamon-num-lock-off-symbolic.svg

<?xml version="1.0" encoding="UTF-8" standalone="no"?>
<svg
   width="16"
   height="16"
   version="1.1"
   id="svg3"
   sodipodi:docname="cinnamon-num-lock-off-symbolic.svg"
   inkscape:version="1.4.2 (ebf0e940d0, 2025-05-08)"
   xmlns:inkscape="http://www.inkscape.org/namespaces/inkscape"
   xmlns:sodipodi="http://sodipodi.sourceforge.net/DTD/sodipodi-0.dtd"
   xmlns="http://www.w3.org/2000/svg"
   xmlns:svg="http://www.w3.org/2000/svg"
   xmlns:rdf="http://www.w3.org/1999/02/22-rdf-syntax-ns#"
   xmlns:cc="http://creativecommons.org/ns#"
   xmlns:dc="http://purl.org/dc/elements/1.1/">
  <defs
     id="defs3">
    <style
       id="current-color-scheme"
       type="text/css">
      .ColorScheme-Text { color:#363636; }
    </style>
  </defs>
  <sodipodi:namedview
     id="namedview3"
     pagecolor="#ffffff"
     bordercolor="#000000"
     borderopacity="0.25"
     inkscape:showpageshadow="2"
     inkscape:pageopacity="0.0"
     inkscape:pagecheckerboard="0"
     inkscape:deskcolor="#d1d1d1"
     inkscape:zoom="49.6875"
     inkscape:cx="8"
     inkscape:cy="8"
     inkscape:window-width="1920"
     inkscape:window-height="1010"
     inkscape:window-x="0"
     inkscape:window-y="0"
     inkscape:window-maximized="1"
     inkscape:current-layer="svg3" />
  <title
     id="title1">Gnome Symbolic Icon Theme</title>
  <path
     id="path1"
     style="fill:currentColor"
     class="ColorScheme-Text"
     d="M 8 0 C 5.784 0 4 1.784 4 4 L 5 4 C 5 2.338 6.338 1 8 1 C 9.662 1 11 2.338 11 4 L 11 6 L 4 6 C 2.892 6 2 6.892 2 8 L 2 13 C 2 14.108 2.892 15 4 15 L 7.2675781 15 A 5.5 5.5 0 0 1 6.6132812 14 L 4 14 C 3.446 14 3 13.554 3 13 L 3 8 C 3 7.446 3.446 7 4 7 L 8.3574219 7 A 5.5 5.5 0 0 1 11.5 6 L 12 6 L 12 4 C 12 1.784 10.216 0 8 0 z " />
  <path
     id="path3"
     style="fill:currentColor"
     class="ColorScheme-Text"
     d="M 11.5 7 C 9.0147186 7 7 9.0147186 7 11.5 C 7 13.985281 9.0147186 16 11.5 16 C 13.985281 16 16 13.985281 16 11.5 C 16 9.0147186 13.985281 7 11.5 7 z M 11 8 L 12 8 L 12 14 L 13 14 L 13 15 L 10 15 L 10 14 L 11 14 L 11 9 L 10 9 L 10 8.3320312 C 10.62074 8.2174314 10.61801 8.21964 11 8 z " />
  <metadata
     id="metadata3">
    <rdf:RDF>
      <cc:Work
         rdf:about="">
        <dc:title>Gnome Symbolic Icon Theme</dc:title>
      </cc:Work>
    </rdf:RDF>
  </metadata>
</svg>

<svg width="16" height="16" version="1.1" xmlns="http://www.w3.org/2000/svg">
 <title>Gnome Symbolic Icon Theme</title>
 <path d="m8 0c-2.216 0-4 1.784-4 4h1c0-1.662 1.338-3 3-3s3 1.338 3 3v2h1v-2c0-2.216-1.784-4-4-4z" fill="#363636"/>
 <path d="m4 6c-1.108 0-2 0.892-2 2v5c0 1.108 0.892 2 2 2h3.2676a5.5 5.5 0 0 1-0.6543-1h-2.6133c-0.554 0-1-0.446-1-1v-5c0-0.554 0.446-1 1-1h4.3574a5.5 5.5 0 0 1 3.1426-1z" fill="#363636"/>
 <path d="m11.5 7c-2.4853 0-4.5 2.0147-4.5 4.5 0 2.4853 2.0147 4.5 4.5 4.5 2.4853 0 4.5-2.0147 4.5-4.5 0-2.4853-2.0147-4.5-4.5-4.5zm-0.5 1h1v6h1v1h-1-1-1v-1h1v-5h-1v-0.66797c0.62074-0.1146 0.61801-0.11239 1-0.33203z" fill="#363636" style="paint-order:stroke fill markers"/>
</svg>
